client/src/assets/images/icon-physical-exam.svg

<svg fill="none" height="74" viewBox="0 0 65 74" width="65" xmlns="http://www.w3.org/2000/svg"><path d="m65 26.9228c0-4.2866-3.4647-7.746-7.7578-7.746-4.2932 0-7.7578 3.4594-7.7578 7.746 0 3.7601 2.7114 6.9187 6.2514 7.5955v20.0041c0 9.25-7.5319 16.7703-16.7961 16.7703s-16.796-7.5203-16.796-16.7703c.8285-.4513 1.3557-1.3537 1.3557-2.3313v-3.8354c10.2434-1.3537 18.1518-10.0772 18.1518-20.6809 0-1.2033-.7532-2.1809-1.8076-2.5569v-12.1077c0-5.18906-3.6906-9.55085-8.5864-10.6037-.3766-1.35365-1.8076-2.3312967-3.5399-2.3312967-1.9583 0-3.6153 1.3536567-3.6153 3.0081267 0 1.65448 1.5817 3.00813 3.6153 3.00813 1.5063 0 2.7868-.75203 3.314-1.80487 3.9919.97764 6.9293 4.51219 6.9293 8.79881v12.0325c-1.0545.376-1.8076 1.3536-1.8076 2.5569 0 8.498-6.9294 15.4167-15.4404 15.4167s-15.44029-6.9187-15.44029-15.4167c0-1.2033-.75319-2.1809-1.80765-2.5569v-12.1077c0-4.36183 3.16338-8.04679 7.30594-8.87402.5272 1.12805 1.8076 1.88008 3.314 1.88008 1.9583 0 3.6153-1.35366 3.6153-3.00813s-1.5817-3.00813-3.6153-3.00813c-1.657 0-3.0881.977642-3.4647 2.2561-4.89568.97764-8.81225 5.41463-8.81225 10.7541v12.0325c-1.054463.376-1.80765 1.3536-1.80765 2.5569 0 10.6789 7.90846 19.4024 18.1518 20.7561v3.8354c0 .9776.5272 1.88 1.3557 2.3313 0 10.754 8.737 19.4776 19.5076 19.4776 10.7705 0 19.5075-8.7236 19.5075-19.4776v-20.0041c3.6906-.6016 6.4774-3.7602 6.4774-7.5955zm-7.7578 4.9634c-2.7868 0-4.9711-2.2561-4.9711-4.9634 0-2.7826 2.2596-4.9635 4.9711-4.9635 2.7868 0 4.971 2.2561 4.971 4.9635.0753 2.7073-2.1842 4.9634-4.971 4.9634z" fill="#fff"/></svg>

<svg width="65" height="74" viewBox="0 0 65 74" fill="none" xmlns="http://www.w3.org/2000/svg">
<path d="M65 26.9228C65 22.6362 61.5353 19.1768 57.2422 19.1768C52.949 19.1768 49.4844 22.6362 49.4844 26.9228C49.4844 30.6829 52.1958 33.8415 55.7358 34.5183V54.5224C55.7358 63.7724 48.2039 71.2927 38.9397 71.2927C29.6755 71.2927 22.1437 63.7724 22.1437 54.5224C22.9722 54.0711 23.4994 53.1687 23.4994 52.1911V48.3557C33.7428 47.002 41.6512 38.2785 41.6512 27.6748C41.6512 26.4715 40.898 25.4939 39.8436 25.1179V13.0102C39.8436 7.82114 36.153 3.45935 31.2572 2.4065C30.8806 1.05285 29.4496 0.0752033 27.7173 0.0752033C25.759 0.0752033 24.102 1.42886 24.102 3.08333C24.102 4.73781 25.6837 6.09146 27.7173 6.09146C29.2236 6.09146 30.5041 5.33943 31.0313 4.28659C35.0232 5.26423 37.9606 8.79878 37.9606 13.0854V25.1179C36.9061 25.4939 36.153 26.4715 36.153 27.6748C36.153 36.1728 29.2236 43.0915 20.7126 43.0915C12.2016 43.0915 5.27231 36.1728 5.27231 27.6748C5.27231 26.4715 4.51912 25.4939 3.46466 25.1179V13.0102C3.46466 8.64837 6.62804 4.96341 10.7706 4.13618C11.2978 5.26423 12.5782 6.01626 14.0846 6.01626C16.0429 6.01626 17.6999 4.6626 17.6999 3.00813C17.6999 1.35366 16.1182 0 14.0846 0C12.4276 0 10.9965 0.977642 10.6199 2.2561C5.72422 3.23374 1.80765 7.67073 1.80765 13.0102V25.0427C0.753187 25.4187 0 26.3963 0 27.5996C0 38.2785 7.90846 47.002 18.1518 48.3557V52.1911C18.1518 53.1687 18.679 54.0711 19.5075 54.5224C19.5075 65.2764 28.2445 74 39.0151 74C49.7856 74 58.5226 65.2764 58.5226 54.5224V34.5183C62.2132 33.9167 65 30.7581 65 26.9228ZM57.2422 31.8862C54.4554 31.8862 52.2711 29.6301 52.2711 26.9228C52.2711 24.1402 54.5307 21.9593 57.2422 21.9593C60.029 21.9593 62.2132 24.2154 62.2132 26.9228C62.2885 29.6301 60.029 31.8862 57.2422 31.8862Z" fill="white"/>
</svg>
